svgs/thin/acorn.svg

<svg xmlns="http://www.w3.org/2000/svg" viewBox="0 0 448 512"><!--! Font Awesome Pro 6.3.0 by @fontawesome - https://fontawesome.com License - https://fontawesome.com/license (Commercial License) Copyright 2023 Fonticons, Inc. --><path d="M.0014 160C.0014 160 .0014 160 .0014 160C.0014 160 .0014 160 .0014 160zM447.1 160C447.1 160 447.1 160 447.1 160C447.1 160 447.1 160 447.1 160zM352 64.04l-120 .0015c.0156-1.191 .6582-28.52 28.8-49.63c3.531-2.656 4.25-7.672 1.609-11.2c-2.656-3.531-7.672-4.266-11.2-1.609c-34.8 26.11-35.2 60.96-35.2 62.43c0 .0156 0-.0156 0 0L96 64.04c-52.99 0-95.99 42.98-95.1 95.97C.0053 177.6 14.38 192 32 192l16 .0001v35.64c0 82.61 48.53 191.5 129.7 230.8l42.77 20.78C221.6 479.7 222.8 480 224 480s2.391-.2656 3.5-.7969l42.75-20.78C351.5 419.2 400 310.3 400 227.6V192L416 192c17.62 0 31.1-14.37 31.1-31.98C447.1 107 404.1 64.04 352 64.04zM384 227.6c0 77.67-45.16 179.8-120.7 216.4L224 463.1l-39.28-19.09C109.2 407.5 64 305.3 64 227.6V192h320V227.6zM416 176H32c-8.818 0-15.1-7.189-15.1-16C16.01 115.9 51.9 80.04 96 80.04h256c44.1 0 79.99 35.88 79.1 79.97C431.1 168.8 424.8 176 416 176z"/></svg>

<svg xmlns="http://www.w3.org/2000/svg" viewBox="0 0 448 512"><!-- Font Awesome Pro 6.0.0-alpha2 by @fontawesome - https://fontawesome.com License - https://fontawesome.com/license (Commercial License) --><path d="M0 160.031C0 160.025 0.002 160.018 0.002 160.012C0.002 160.008 0 160.006 0 160.002V160.031ZM447.998 160.012C447.998 160.018 448 160.025 448 160.031V160.002C448 160.006 447.998 160.008 447.998 160.012ZM352 64.039H232C232.016 62.848 232.658 35.518 260.797 14.406C264.328 11.75 265.047 6.734 262.406 3.203C259.75 -0.328 254.734 -1.063 251.203 1.594C216.406 27.703 216 62.531 216 64C216 64.016 216.016 64.023 216.016 64.039H96C43.006 64.039 0.014 107.021 0.002 160.012C0.006 177.629 14.379 192 32 192H48V227.641C48 310.25 96.531 419.156 177.734 458.422L220.5 479.203C221.609 479.734 222.797 480 224 480S226.391 479.734 227.5 479.203L270.25 458.422C351.469 419.156 400 310.25 400 227.641V192H416C433.621 192 447.994 177.629 447.998 160.012C447.986 107.021 404.994 64.039 352 64.039ZM384 227.641C384 305.312 338.844 407.484 263.266 444.016L224 463.109L184.719 444.016C109.156 407.484 64 305.312 64 227.641V192H384V227.641ZM416 176H32C23.182 176 16.004 168.826 16.002 160.016C16.012 115.916 51.898 80.039 96 80.039H352C396.102 80.039 431.988 115.916 431.998 160.008C431.996 168.826 424.82 176 416 176Z"/></svg>
